build/assets/img/about-us/smm-element-8.svg

<svg width="99" height="99" viewBox="0 0 99 99" fill="none" xmlns="http://www.w3.org/2000/svg">
<g clip-path="url(#clip0)">
<path d="M71.3561 40.344V63.4329C71.3561 66.1363 70.2833 68.7289 68.3737 70.6405C66.464 72.5521 63.874 73.626 61.1734 73.626H38.1125C35.4118 73.626 32.8218 72.5521 30.9122 70.6405C29.0025 68.7289 27.9297 66.1363 27.9297 63.4329V40.344C27.9297 37.6406 29.0025 35.0479 30.9122 33.1364C32.8218 31.2248 35.4118 30.1509 38.1125 30.1509H61.178C63.8786 30.1509 66.4687 31.2248 68.3783 33.1364C70.2879 35.0479 71.3608 37.6406 71.3608 40.344H71.3561Z" fill="#2CAAE1"/>
<path fill-rule="evenodd" clip-rule="evenodd" d="M43.8356 58.3452C42.6083 58.3124 41.4212 57.8979 40.4374 57.1588C39.4535 56.4196 38.7212 55.392 38.3411 54.2171C39.1858 54.3771 40.055 54.3509 40.8888 54.1401H40.9737C40.182 53.9758 39.4324 53.6489 38.7719 53.1797C38.1114 52.7106 37.5542 52.1094 37.1351 51.4136C36.5571 50.4631 36.2623 49.3655 36.2859 48.2513C37.0952 48.6954 37.9972 48.9413 38.9185 48.9692C37.6845 48.1196 36.8139 46.8332 36.4802 45.3664C36.1465 43.8995 36.3743 42.36 37.1182 41.0547C38.6082 42.8866 40.4617 44.3854 42.5601 45.4554C44.6585 46.5253 46.9557 47.1428 49.3047 47.2684C49.3047 47.0376 49.2368 46.8325 49.2113 46.6188C49.0276 45.2622 49.3286 43.884 50.0605 42.7299C50.4918 42.0137 51.0745 41.402 51.7673 40.9381C52.4601 40.4743 53.246 40.1697 54.0689 40.0462C55 39.8741 55.9588 39.9353 56.8608 40.2245C57.7628 40.5137 58.5802 41.0219 59.2408 41.7043C59.2775 41.7502 59.3272 41.7837 59.3834 41.8005C59.4395 41.8173 59.4993 41.8165 59.555 41.7983C60.7487 41.5323 61.8945 41.0825 62.9519 40.465H63.0284H63.0708C62.6242 41.8114 61.7227 42.9576 60.5231 43.7043C61.6572 43.5838 62.7675 43.2958 63.8182 42.8496C63.5974 43.1487 63.3766 43.4479 63.1388 43.7043C62.5175 44.4792 61.7981 45.1688 60.9987 45.7555C60.9668 45.7751 60.9405 45.8028 60.9226 45.8358C60.9048 45.8688 60.8958 45.906 60.8968 45.9436C60.9323 46.8255 60.8954 47.7088 60.7864 48.5846C60.5579 50.4201 60.045 52.2081 59.2663 53.8837C58.4656 55.6114 57.3867 57.194 56.0731 58.5675C53.8829 60.8424 51.0678 62.4078 47.9884 63.0632C46.9045 63.2966 45.8014 63.4282 44.6933 63.4563C41.3585 63.5745 38.0654 62.6812 35.2413 60.8922L35.1055 60.7982C37.127 61.03 39.1739 60.7357 41.0501 59.9435C42.0482 59.5443 42.9859 59.0063 43.8356 58.3452Z" fill="white"/>
<path d="M93.6409 51.2043C93.6409 76.0459 73.8697 96.1762 49.4904 96.1762C25.111 96.1762 5.33984 76.0459 5.33984 51.2043C5.33984 26.3627 25.111 6.23242 49.4904 6.23242C73.8697 6.23242 93.6409 26.3627 93.6409 51.2043Z" fill="#FFC9E7" fill-opacity="0.3" stroke="#E4829E" stroke-width="0.5"/>
<g filter="url(#filter0_f)">
<path d="M29.5243 23.6508C35.9224 20.7396 35.883 17.8031 35.3659 16.5092C33.8149 14.7626 32.502 15.2939 30.7128 15.7329C28.3657 16.3088 24.9483 19.4793 21.9881 22.3316C19.112 25.1028 14.4749 31.4736 14.3991 34.1243C14.3322 36.4604 15.5875 38.2393 16.1691 36.2986C16.7507 34.3578 22.2277 26.9708 29.5243 23.6508Z" fill="white"/>
</g>
<path d="M31.5668 90.146C52.0398 96.3459 90.0628 87.5222 90.2595 43.2473C95.995 66.9456 73.77 105.391 31.5668 90.146Z" fill="#FFCBE8"/>
</g>
<defs>
<filter id="filter0_f" x="13.3965" y="14.2988" width="23.178" height="23.8275" filterUnits="userSpaceOnUse" color-interpolation-filters="sRGB">
<feFlood flood-opacity="0" result="BackgroundImageFix"/>
<feBlend mode="normal" in="SourceGraphic" in2="BackgroundImageFix" result="shape"/>
<feGaussianBlur stdDeviation="0.5" result="effect1_foregroundBlur"/>
</filter>
<clipPath id="clip0">
<rect width="99" height="99" fill="white"/>
</clipPath>
</defs>
</svg>

<svg width="99" height="99" fill="none" xmlns="http://www.w3.org/2000/svg"><g clip-path="url(#clip0)"><path d="M71.356 40.344v23.089c0 2.703-1.073 5.296-2.982 7.208a10.178 10.178 0 01-7.2 2.985H38.111c-2.7 0-5.29-1.074-7.2-2.986a10.198 10.198 0 01-2.982-7.207V40.344c0-2.703 1.073-5.296 2.982-7.208a10.177 10.177 0 017.2-2.985h23.066c2.7 0 5.29 1.074 7.2 2.985a10.198 10.198 0 012.983 7.208h-.005z" fill="#2CAAE1"/><path fill-rule="evenodd" clip-rule="evenodd" d="M43.836 58.345a5.92 5.92 0 01-3.399-1.186 5.981 5.981 0 01-2.096-2.942c.845.16 1.714.134 2.548-.077h.085a5.857 5.857 0 01-2.202-.96 5.898 5.898 0 01-1.637-1.766 5.849 5.849 0 01-.85-3.163 5.84 5.84 0 002.634.718 5.984 5.984 0 01-2.439-3.603 6.016 6.016 0 01.638-4.311 16.928 16.928 0 005.442 4.4 16.825 16.825 0 006.745 1.813c0-.23-.068-.435-.094-.65a5.808 5.808 0 01.85-3.888 5.686 5.686 0 011.706-1.792 5.643 5.643 0 012.302-.892 5.73 5.73 0 012.792.178 5.76 5.76 0 012.38 1.48.288.288 0 00.314.094 11.845 11.845 0 003.397-1.333h.119a6.062 6.062 0 01-2.548 3.24 11.552 11.552 0 003.295-.855c-.22.299-.441.598-.68.854a11.353 11.353 0 01-2.14 2.051.214.214 0 00-.101.189 16.13 16.13 0 01-.11 2.64 17.788 17.788 0 01-1.52 5.3 17.322 17.322 0 01-3.194 4.684 15.786 15.786 0 01-8.085 4.495 17.796 17.796 0 01-3.295.393 16.563 16.563 0 01-9.452-2.564l-.136-.094a11.819 11.819 0 005.945-.855 11.483 11.483 0 002.786-1.598z" fill="#fff"/><path d="M93.64 51.204c0 24.842-19.77 44.972-44.15 44.972-24.379 0-44.15-20.13-44.15-44.972 0-24.841 19.771-44.972 44.15-44.972 24.38 0 44.15 20.13 44.15 44.972z" fill="#FFC9E7" fill-opacity=".3" stroke="#E4829E" stroke-width=".5"/><g filter="url(#filter0_f)"><path d="M29.524 23.65c6.398-2.91 6.359-5.847 5.842-7.14-1.551-1.747-2.864-1.216-4.653-.777-2.347.576-5.765 3.746-8.725 6.599-2.876 2.77-7.513 9.142-7.589 11.792-.067 2.336 1.189 4.115 1.77 2.175.582-1.941 6.059-9.328 13.355-12.648z" fill="#fff"/></g><path d="M31.567 90.146c20.473 6.2 58.496-2.624 58.693-46.899 5.735 23.699-16.49 62.144-58.693 46.899z" fill="#FFCBE8"/></g><defs><clipPath id="clip0"><path fill="#fff" d="M0 0h99v99H0z"/></clipPath><filter id="filter0_f" x="13.396" y="14.299" width="23.178" height="23.828" filterUnits="userSpaceOnUse" color-interpolation-filters="sRGB"><feFlood flood-opacity="0" result="BackgroundImageFix"/><feBlend in="SourceGraphic" in2="BackgroundImageFix" result="shape"/><feGaussianBlur stdDeviation=".5" result="effect1_foregroundBlur"/></filter></defs></svg>
